dist/svg/linux.svg

<svg width="16" height="16" viewBox="0 0 16 16" fill="rgb(34, 34, 34)" xmlns="http://www.w3.org/2000/svg"><title>linux</title><g clip-path="url(#clip0_213_107)"><path d="M15.2 12.8001C15 12.1001 14.6 12.0001 14.3 11.8001C14.3 11.3001 14 10.7001 13.6 10.5001C13.8 8.6001 12.3 7.1001 11.3 5.6001C10.5 4.5001 11.5 4.3001 10.7 1.8001C9.99999 -0.699902 6.09999 -0.499902 5.39999 1.6001C4.99999 2.8001 5.19999 3.7001 5.39999 5.2001V5.4001C5.29999 6.5001 4.39999 7.3001 3.79999 8.2001C3.49999 8.7001 3.19999 9.2001 3.19999 9.9001C3.19999 10.2001 3.19999 10.4001 3.09999 10.7001C2.79999 10.8001 2.49999 11.2001 2.29999 11.5001C1.49999 11.6001 0.499986 12.2001 0.999986 13.3001C0.299986 14.1001 0.899986 15.2001 1.99999 15.3001C2.69999 15.4001 3.19999 15.6001 3.69999 15.8001C4.19999 15.8001 4.49999 16.0001 4.89999 16.0001C5.59999 16.0001 6.29999 15.5001 6.49999 14.9001C7.49999 15.3001 8.69999 15.2001 9.59999 14.7001C9.69999 15.4001 10.4 16.1001 11.2 16.0001C12.3 15.9001 13.2 14.9001 14.1 14.4001C14.4 14.2001 14.6 14.1001 14.9 13.8001C15.2 13.4001 15.2 13.0001 15.2 12.8001ZM7.89999 3.3001C7.99999 1.2001 10.4 2.3001 9.29999 4.0001L9.09999 3.9001C9.69999 2.9001 8.29999 2.2001 8.19999 3.5001V3.6001L7.89999 3.5001V3.3001ZM9.49999 5.0001L7.59999 6.4001L6.29999 5.1001C6.39999 5.0001 6.69999 4.8001 6.79999 4.7001L7.49999 4.2001C7.99999 4.5001 9.09999 4.8001 9.49999 5.0001ZM6.59999 2.4001C6.99999 2.4001 7.29999 3.0001 7.19999 3.5001C7.09999 3.5001 6.99999 3.6001 6.99999 3.6001C6.79999 2.3001 5.59999 3.2001 6.39999 4.0001L6.29999 4.1001C5.79999 3.7001 5.59999 2.4001 6.59999 2.4001ZM5.69999 14.5001C5.59999 14.8001 5.29999 15.0001 4.99999 15.1001C4.19999 14.9001 3.19999 14.4001 2.29999 14.3001C1.79999 14.2001 1.59999 14.0001 1.89999 13.7001C2.09999 13.4001 2.19999 13.4001 1.99999 12.8001C1.99999 12.7334 1.96665 12.6668 1.89999 12.6001C1.89999 12.3001 2.39999 12.3001 2.69999 12.2001C3.19999 12.2001 3.09999 12.0001 3.19999 11.8001C3.29999 11.6001 3.39999 11.2001 3.69999 11.3001C4.39999 12.0001 4.79999 13.0001 5.39999 13.8001C5.59999 14.0001 5.69999 14.3001 5.69999 14.5001ZM9.79999 13.5001C9.09999 14.1001 8.09999 14.4001 7.19999 14.2001C6.89999 14.1001 6.69999 14.0001 6.49999 13.9001L6.19999 13.3001C7.59999 12.0001 3.19999 11.0001 4.59999 8.6001C5.29999 7.7001 5.79999 7.2001 6.09999 6.2001C6.19999 6.2001 6.89999 7.0001 6.99999 7.0001C7.29999 7.3001 7.79999 7.3001 8.19999 7.1001L9.59999 6.0001C10.5 7.2001 10.9 8.9001 11 10.4001C10.7 10.6001 10.5 10.9001 10.4 11.5001C10.2 12.3001 10.1 12.8001 9.79999 13.5001ZM14.2 13.2001C13.3 13.9001 12.4 14.6001 11.3 15.1001C10.9 15.2001 10.5 14.8001 10.5 14.4001C10.7 13.6001 11.1 12.7001 11.2 11.9001C11.9 12.5001 12.8 12.1001 13.2 11.5001C13.4 11.7001 13.4 11.9001 13.4 12.2001C13.3 12.7001 14.6 12.6001 14.2 13.2001Z" fill="rgb(34, 34, 34)" fill-opacity="1.00"/></g><defs><clipPath id="clip0_213_107"><rect width="16" height="16" fill="rgb(34, 34, 34)"/></clipPath></defs></svg>

<!-- Generated by Trend Micro Style Portal -->
<svg version="1.1" xmlns="http://www.w3.org/2000/svg" width="16" height="16" viewBox="0 0 16 16">
  <title>linux</title>
  <path fill="rgb(34,34,34)" d="M15.2 12.8c-0.2-0.7-0.6-0.8-0.9-1 0-0.5-0.3-1.1-0.7-1.3 0.2-1.9-1.3-3.4-2.3-4.9-0.8-1.1 0.2-1.3-0.6-3.8-0.7-2.5-4.6-2.3-5.3-0.2-0.4 1.2-0.2 2.1 0 3.6v0.2c-0.1 1.1-1 1.9-1.6 2.8-0.3 0.5-0.6 1-0.6 1.7 0 0.3 0 0.5-0.1 0.8-0.3 0.1-0.6 0.5-0.8 0.8-0.8 0.1-1.8 0.7-1.3 1.8-0.7 0.8-0.1 1.9 1 2 0.7 0.1 1.2 0.3 1.7 0.5 0.5 0 0.8 0.2 1.2 0.2 0.7 0 1.4-0.5 1.6-1.1 1 0.4 2.2 0.3 3.1-0.2 0.1 0.7 0.8 1.4 1.6 1.3 1.1-0.1 2-1.1 2.9-1.6 0.3-0.2 0.5-0.3 0.8-0.6 0.3-0.4 0.3-0.8 0.3-1zM7.9 3.3c0.1-2.1 2.5-1 1.4 0.7l-0.2-0.1c0.6-1-0.8-1.7-0.9-0.4v0.1l-0.3-0.1v-0.2zM9.5 5l-1.9 1.4-1.3-1.3c0.1-0.1 0.4-0.3 0.5-0.4l0.7-0.5c0.5 0.3 1.6 0.6 2 0.8zM6.6 2.4c0.4 0 0.7 0.6 0.6 1.1-0.1 0-0.2 0.1-0.2 0.1-0.2-1.3-1.4-0.4-0.6 0.4v0l-0.1 0.1c-0.5-0.4-0.7-1.7 0.3-1.7zM5.7 14.5c-0.1 0.3-0.4 0.5-0.7 0.6-0.8-0.2-1.8-0.7-2.7-0.8-0.5-0.1-0.7-0.3-0.4-0.6 0.2-0.3 0.3-0.3 0.1-0.9q0-0.1-0.1-0.2c0-0.3 0.5-0.3 0.8-0.4 0.5 0 0.4-0.2 0.5-0.4s0.2-0.6 0.5-0.5c0.7 0.7 1.1 1.7 1.7 2.5 0.2 0.2 0.3 0.5 0.3 0.7zM9.8 13.5c-0.7 0.6-1.7 0.9-2.6 0.7-0.3-0.1-0.5-0.2-0.7-0.3l-0.3-0.6c1.4-1.3-3-2.3-1.6-4.7 0.7-0.9 1.2-1.4 1.5-2.4 0.1 0 0.8 0.8 0.9 0.8 0.3 0.3 0.8 0.3 1.2 0.1l1.4-1.1c0.9 1.2 1.3 2.9 1.4 4.4-0.3 0.2-0.5 0.5-0.6 1.1-0.2 0.8-0.3 1.3-0.6 2zM14.2 13.2c-0.9 0.7-1.8 1.4-2.9 1.9-0.4 0.1-0.8-0.3-0.8-0.7 0.2-0.8 0.6-1.7 0.7-2.5 0.7 0.6 1.6 0.2 2-0.4 0.2 0.2 0.2 0.4 0.2 0.7-0.1 0.5 1.2 0.4 0.8 1z"></path>
</svg>
